polaris-icons/icons/new-icons/ImageMajor.svg

<svg width="20" height="20" viewBox="0 0 20 20" fill="none" xmlns="http://www.w3.org/2000/svg">
<path d="M12.5 9C13.3284 9 14 8.32843 14 7.5C14 6.67157 13.3284 6 12.5 6C11.6716 6 11 6.67157 11 7.5C11 8.32843 11.6716 9 12.5 9Z" fill="#4A4A4A"/>
<path fill-rule="evenodd" clip-rule="evenodd" d="M9.0179 3.5H10.9821C11.7949 3.49999 12.4506 3.49999 12.9815 3.54336C13.5281 3.58803 14.0082 3.68239 14.4525 3.90873C15.1581 4.26825 15.7317 4.84193 16.0913 5.54754C16.3176 5.99175 16.412 6.4719 16.4566 7.01853C16.5 7.54944 16.5 8.20505 16.5 9.01788V10.9821C16.5 11.795 16.5 12.4506 16.4566 12.9815C16.412 13.5281 16.3176 14.0082 16.0913 14.4525C15.7317 15.1581 15.1581 15.7317 14.4525 16.0913C14.0082 16.3176 13.5281 16.412 12.9815 16.4566C12.4506 16.5 11.795 16.5 10.9821 16.5H9.01788C8.20505 16.5 7.54944 16.5 7.01853 16.4566C6.4719 16.412 5.99175 16.3176 5.54754 16.0913C4.84193 15.7317 4.26825 15.1581 3.90873 14.4525C3.68239 14.0082 3.58803 13.5281 3.54336 12.9815C3.49999 12.4506 3.49999 11.7949 3.5 10.9821V9.0179C3.49999 8.20506 3.49999 7.54944 3.54336 7.01853C3.58803 6.4719 3.68239 5.99175 3.90873 5.54754C4.26825 4.84193 4.84193 4.26825 5.54754 3.90873C5.99175 3.68239 6.4719 3.58803 7.01853 3.54336C7.54944 3.49999 8.20506 3.49999 9.0179 3.5ZM7.14068 5.03838C6.68681 5.07547 6.42604 5.1446 6.22852 5.24524C5.80516 5.46095 5.46095 5.80516 5.24524 6.22852C5.1446 6.42604 5.07547 6.68681 5.03838 7.14068C5.00058 7.60331 5 8.19755 5 9.05V10.4785L5.7228 9.61114C6.38159 8.82059 7.57697 8.76637 8.30462 9.49402L11 12.1894L12.1796 11.0097C12.9172 10.2722 14.132 10.3395 14.7836 11.154L14.9997 11.424C15 11.2754 15 11.1177 15 10.95V9.05C15 8.19755 14.9994 7.60331 14.9616 7.14068C14.9245 6.68681 14.8554 6.42604 14.7548 6.22852C14.539 5.80516 14.1948 5.46095 13.7715 5.24524C13.574 5.1446 13.3132 5.07547 12.8593 5.03838C12.3967 5.00058 11.8025 5 10.95 5H9.05C8.19755 5 7.60331 5.00058 7.14068 5.03838ZM5.03838 12.8593C5.03622 12.8328 5.03417 12.8059 5.03225 12.7785C5.04743 12.7632 5.06209 12.7471 5.07615 12.7302L6.87513 10.5714C6.96924 10.4585 7.14001 10.4507 7.24396 10.5547L10.4697 13.7804C10.7626 14.0733 11.2374 14.0733 11.5303 13.7804L13.2403 12.0704C13.3457 11.965 13.5192 11.9747 13.6123 12.091L14.8252 13.6071C14.8037 13.6674 14.7803 13.7214 14.7548 13.7715C14.539 14.1948 14.1948 14.539 13.7715 14.7548C13.574 14.8554 13.3132 14.9245 12.8593 14.9616C12.3967 14.9994 11.8025 15 10.95 15H9.05C8.19755 15 7.60331 14.9994 7.14068 14.9616C6.68681 14.9245 6.42604 14.8554 6.22852 14.7548C5.80516 14.539 5.46095 14.1948 5.24524 13.7715C5.1446 13.574 5.07547 13.3132 5.03838 12.8593Z" fill="#4A4A4A"/>
</svg>

<svg viewBox="0 0 20 20" xmlns="http://www.w3.org/2000/svg"><path d="M12.5 9a1.5 1.5 0 1 0 0-3 1.5 1.5 0 0 0 0 3Z" fill="#5C5F62"/><path fill-rule="evenodd" d="M9.018 3.5h1.964c.813 0 1.469 0 2 .043.546.045 1.026.14 1.47.366a3.75 3.75 0 0 1 1.64 1.639c.226.444.32.924.365 1.47.043.531.043 1.187.043 2v1.964c0 .813 0 1.469-.043 2-.045.546-.14 1.026-.366 1.47a3.75 3.75 0 0 1-1.639 1.64c-.444.226-.924.32-1.47.365-.531.043-1.187.043-2 .043h-1.964c-.813 0-1.469 0-2-.043-.546-.045-1.026-.14-1.47-.366a3.75 3.75 0 0 1-1.64-1.639c-.226-.444-.32-.924-.365-1.47-.043-.531-.043-1.187-.043-2v-1.964c0-.813 0-1.469.043-2 .045-.546.14-1.026.366-1.47a3.75 3.75 0 0 1 1.639-1.64c.444-.226.924-.32 1.47-.365.531-.043 1.187-.043 2-.043Zm-1.877 1.538c-.454.037-.715.107-.912.207a2.25 2.25 0 0 0-.984.984c-.1.197-.17.458-.207.912-.037.462-.038 1.057-.038 1.909v1.428l.723-.867a1.75 1.75 0 0 1 2.582-.117l2.695 2.695 1.18-1.18a1.75 1.75 0 0 1 2.604.145l.216.27v-2.374c0-.852 0-1.447-.038-1.91-.037-.453-.107-.714-.207-.911a2.25 2.25 0 0 0-.984-.984c-.197-.1-.458-.17-.912-.207-.462-.037-1.056-.038-1.909-.038h-1.9c-.852 0-1.447 0-1.91.038Zm-2.103 7.821a7.12 7.12 0 0 1-.006-.08.746.746 0 0 0 .044-.049l1.8-2.159a.25.25 0 0 1 .368-.016l3.226 3.225a.75.75 0 0 0 1.06 0l1.71-1.71a.25.25 0 0 1 .372.021l1.213 1.516c-.021.06-.045.114-.07.165-.216.423-.56.767-.984.983-.197.1-.458.17-.912.207-.462.037-1.056.038-1.909.038h-1.9c-.852 0-1.447 0-1.91-.038-.453-.037-.714-.107-.911-.207a2.25 2.25 0 0 1-.984-.984c-.1-.197-.17-.458-.207-.912Z" fill="#5C5F62"/></svg>
